static/cats/cat_ticket_1.svg

<svg width="130" height="100" viewBox="0 0 130 100" fill="none" xmlns="http://www.w3.org/2000/svg">
<g clip-path="url(#clip0)">
<path d="M107.08 79.3C111.98 76.3 116.46 72.62 120.31 68.34C121.24 67.3 122.09 66.16 122.58 64.86C122.64 64.71 122.67 64.56 122.67 64.4C122.67 64.08 122.52 63.78 122.37 63.49C119.67 58.22 116.51 53.18 112.95 48.45L113.07 46.87C113.6 39.62 114.28 30.3 113.12 23.13C111.95 15.96 109.56 8.92003 105.55 2.86003C105.39 2.62003 105.21 2.36003 104.93 2.26003C104.62 2.15003 104.27 2.26003 103.96 2.38003C94.77 5.91003 85.96 12.66 79.97 20.51C79.73 20.83 79.32 20.97 78.94 20.88L75.72 20.09C75.42 20.02 75.3 19.65 75.5 19.42C75.84 19.03 76.19 18.64 76.53 18.25C76.9 17.83 76.75 17.15 76.23 16.94C74.17 16.14 70.95 15.47 67.94 15.56C67.4 15.58 67.03 15 67.25 14.51C67.63 13.68 68.11 12.9 68.66 12.17C68.97 11.77 68.57 11.2 68.08 11.33C62.66 12.74 57.61 15.51 53.63 19.44C52.98 20.08 52.2 20.56 51.33 20.79C50.79 20.93 50.22 20.74 49.88 20.29C43.88 12.54 35.14 5.88003 26.04 2.38003C25.73 2.26003 25.39 2.14003 25.07 2.26003C24.8 2.36003 24.61 2.62003 24.45 2.86003C20.43 8.92003 18.04 15.96 16.88 23.13C15.71 30.3 16.51 41.2 17.04 48.45C13.48 53.18 10.32 58.22 7.62001 63.49C7.47001 63.78 7.32001 64.08 7.32001 64.4C7.32001 64.56 7.36001 64.71 7.41001 64.86C7.90001 66.17 8.75001 67.31 9.68001 68.34C13.53 72.62 18.02 76.29 22.91 79.3H107.08Z" fill="#FE8630"/>
<path d="M119.56 58.41C117.55 54.97 115.35 51.64 112.96 48.45L112.98 48.12C110.88 49.84 108.71 52.57 108.13 55.13C107.88 56.24 107.8 57.45 108.28 58.48C108.99 60 110.8 60.77 112.48 60.75C114.16 60.73 115.76 60.07 117.31 59.42C117.8 59.21 118.83 58.73 119.56 58.41Z" fill="#EB561E"/>
<path d="M108.73 67.2C107.56 67.49 106.43 68.17 105.87 69.25C105.13 70.68 105.55 72.44 106.25 73.89L108.74 78.25C111.53 76.42 114.16 74.36 116.61 72.1C117.8 71 118.94 69.83 119.99 68.59C117.66 67.77 114.61 67.22 112.33 67.06C111.13 66.97 109.9 66.92 108.73 67.2Z" fill="#EB561E"/>
<path d="M20.87 60.98C21.98 60.87 23.13 60.55 23.89 59.73C24.89 58.64 24.91 56.92 24.32 55.57C23.73 54.22 22.63 53.16 21.52 52.19C20.34 51.15 18.47 49.59 17.03 48.48C14.64 51.66 12.44 55 10.43 58.44C13.57 59.73 17.71 61.3 20.87 60.98Z" fill="#EB561E"/>
<path d="M23.87 75.05C24.72 73.5 25.6 71.8 25.35 70.05C25.26 69.45 25.03 68.85 24.59 68.42C23.77 67.62 22.49 67.61 21.35 67.71C18.41 67.97 14.57 69.13 11.57 70.32C12.16 70.93 12.77 71.52 13.39 72.1C15.97 74.49 18.77 76.64 21.73 78.55C22.42 77.42 23.38 75.96 23.87 75.05Z" fill="#EB561E"/>
<path d="M37.93 24.82C35.41 21.42 32.23 18.9 28.35 17.31C28 17.17 27.6 17.31 27.41 17.64C25.18 21.44 23.97 30.4 24.86 34.18C25.03 34.72 25.7 34.9 26.12 34.51C26.99 33.7 28.43 32.39 30.1 31.01C30.37 30.79 30.53 30.46 30.53 30.12L30.54 28C30.54 27.61 31.01 27.41 31.3 27.68L31.98 28.32C32.38 28.7 33 28.75 33.45 28.43C34.89 27.41 36.33 26.52 37.61 25.98C38.06 25.79 38.23 25.22 37.93 24.82Z" fill="#7F3613"/>
<path d="M92.34 24.82C94.86 21.42 98.04 18.9 101.92 17.31C102.27 17.17 102.67 17.31 102.86 17.64C105.09 21.44 106.3 30.4 105.41 34.18C105.24 34.72 104.57 34.9 104.15 34.51C103.28 33.7 101.84 32.39 100.17 31.01C99.9 30.79 99.74 30.46 99.74 30.12L99.73 28C99.73 27.61 99.26 27.41 98.97 27.68L98.29 28.32C97.89 28.7 97.27 28.75 96.82 28.43C95.38 27.41 93.94 26.52 92.66 25.98C92.21 25.79 92.04 25.22 92.34 24.82Z" fill="#7F3613"/>
<path d="M79.25 67.9401C77.36 69.1601 74.78 69.4301 72.58 69.1101C70.5 68.8101 68.55 67.6101 67.31 65.9101C67.3 65.8901 67.27 65.8801 67.26 65.8601C67.18 65.7401 67.08 65.6301 66.95 65.5501C66.88 65.5101 66.8 65.5001 66.73 65.4701C66.71 65.4601 66.69 65.4501 66.67 65.4501C66.59 65.4301 66.51 65.4301 66.43 65.4301C66.36 65.4301 66.3 65.4301 66.23 65.4501C66.2 65.4601 66.17 65.4701 66.14 65.4801C66.07 65.5001 66.01 65.5101 65.94 65.5501C65.82 65.6201 65.72 65.7301 65.63 65.8501C65.61 65.8701 65.59 65.8801 65.58 65.9001C64.35 67.6001 62.39 68.7601 60.31 69.0601C58.11 69.3801 55.54 69.1101 53.64 67.8901C52.56 67.1901 51.55 68.9201 52.63 69.6201C54.98 71.1301 58.13 71.4201 60.84 70.9901C63.01 70.6501 64.95 69.5201 66.44 67.9401C67.92 69.5301 69.87 70.6801 72.04 71.0301C74.75 71.4601 77.91 71.1701 80.25 69.6601C81.34 68.9701 80.34 67.2401 79.25 67.9401Z" fill="#7F3613"/>
<path d="M70 60.1001C68.88 59.4101 64 59.4201 62.96 60.1001C62.65 60.3001 62.28 60.5301 62.31 60.9001C62.33 61.1101 62.47 61.2801 62.6 61.4301C63.59 62.5401 64.79 63.4701 66.12 64.1401C66.23 64.2001 66.36 64.2401 66.48 64.2701C66.61 64.2501 66.73 64.2001 66.84 64.1401C68.17 63.4701 69.37 62.5401 70.36 61.4301C70.5 61.2801 70.64 61.1001 70.65 60.9001C70.68 60.5401 70.31 60.2901 70 60.1001Z" fill="#7F3613"/>
<path d="M47.44 61.52C53.4489 61.52 58.32 56.6489 58.32 50.64C58.32 44.6312 53.4489 39.76 47.44 39.76C41.4311 39.76 36.56 44.6312 36.56 50.64C36.56 56.6489 41.4311 61.52 47.44 61.52Z" fill="white"/>
<path d="M50.82 52.39C49.43 52.05 48.29 50.97 47.89 49.6C47.5 48.28 47.77 47.04 48.43 46.08C48.55 45.91 48.43 45.66 48.22 45.63C46.92 45.45 45.53 45.57 44.1 46.14C41.37 47.23 39.35 49.72 38.95 52.63C38.58 55.32 39.51 57.8 41.2 59.54C42.55 60.49 44.14 61.15 45.88 61.41C47.95 61.71 49.97 61.39 51.76 60.61C53.93 59.12 55.36 56.63 55.36 53.8C55.36 53.04 55.25 52.31 55.06 51.61C55 51.39 54.73 51.34 54.56 51.49C53.6 52.33 52.26 52.75 50.82 52.39Z" fill="#1B2F45"/>
<path d="M47.08 60.3301C45.93 60.3301 44.78 60.0701 43.75 59.5601C43.01 59.1901 42.7 58.2901 43.07 57.5501C43.44 56.8101 44.34 56.5001 45.08 56.8701C46.22 57.4301 47.61 57.4801 48.79 57.0001C49.56 56.6901 50.43 57.0501 50.75 57.8201C51.06 58.5901 50.7 59.4601 49.93 59.7801C49.03 60.1501 48.06 60.3301 47.08 60.3301Z" fill="#3D99E0"/>
<path d="M86.02 61.52C92.0288 61.52 96.9 56.6489 96.9 50.64C96.9 44.6312 92.0288 39.76 86.02 39.76C80.0111 39.76 75.14 44.6312 75.14 50.64C75.14 56.6489 80.0111 61.52 86.02 61.52Z" fill="white"/>
<path d="M89.4 52.39C88.01 52.05 86.87 50.97 86.47 49.6C86.08 48.28 86.35 47.04 87 46.09C87.12 45.91 87 45.66 86.79 45.63C85.5 45.45 84.11 45.57 82.67 46.14C79.94 47.23 77.92 49.72 77.52 52.63C77.15 55.32 78.08 57.8 79.77 59.54C81.12 60.49 82.71 61.15 84.45 61.41C86.52 61.71 88.54 61.39 90.33 60.61C92.5 59.12 93.93 56.63 93.93 53.8C93.93 53.04 93.82 52.31 93.63 51.62C93.57 51.4 93.3 51.34 93.13 51.49C92.18 52.33 90.84 52.75 89.4 52.39Z" fill="#1B2F45"/>
<path d="M85.67 60.3301C84.52 60.3301 83.37 60.0701 82.34 59.5601C81.6 59.1901 81.29 58.2901 81.66 57.5501C82.03 56.8101 82.93 56.5001 83.67 56.8701C84.81 57.4301 86.2 57.4801 87.38 57.0001C88.15 56.6901 89.02 57.0501 89.34 57.8201C89.65 58.5901 89.29 59.4601 88.52 59.7801C87.62 60.1501 86.64 60.3301 85.67 60.3301Z" fill="#3D99E0"/>
<path d="M64.6 56.58C64.77 56.54 64.94 56.5 65.11 56.47C65.18 56.46 65.26 56.45 65.33 56.43C65.58 56.39 65.1 56.45 65.36 56.43C65.68 56.39 66 56.37 66.33 56.37C66.65 56.37 66.98 56.38 67.3 56.42C67.37 56.43 67.58 56.49 67.33 56.42C67.4 56.44 67.48 56.44 67.55 56.45C67.72 56.48 67.89 56.51 68.06 56.55C68.57 56.66 69.17 56.4 69.29 55.85C69.41 55.34 69.14 54.74 68.59 54.62C67.1 54.28 65.56 54.29 64.07 54.65C63.56 54.77 63.21 55.38 63.37 55.88C63.55 56.41 64.06 56.71 64.6 56.58Z" fill="#EB561E"/>
<path d="M72.05 71.0401C71.44 70.9401 70.85 70.7701 70.27 70.5601L72.85 74.7501C72.97 74.9401 73.24 74.9601 73.39 74.7901L76.42 71.0601C74.96 71.2901 73.45 71.2601 72.05 71.0401Z" fill="white"/>
<path d="M112.65 79.3C111.76 83.46 109.63 92.79 106.81 95.97C103.8 99.35 98.79 100.85 94.47 99.52C93.43 99.2 92.4 98.71 91.67 97.9C90.38 96.48 90.23 94.37 90.28 92.45C90.41 88.16 91.24 83.9 92.74 79.88C95.47 73.74 103.29 70.87 109.22 72.17C112.86 73.15 115.72 75.99 117.56 79.3H112.65Z" fill="#FE8630"/>
<path d="M101.39 99.42L100.45 96.69C100.32 96.3 99.76 96.31 99.64 96.71L98.66 99.96C99.58 99.89 100.5 99.7 101.39 99.42Z" fill="#EB561E"/>
<path d="M94.47 99.52C94.61 99.56 94.75 99.6 94.9 99.63L95.34 96.77C95.4 96.36 94.91 96.11 94.62 96.41L92.47 98.58C93.07 99 93.76 99.31 94.47 99.52Z" fill="#EB561E"/>
<path d="M20.31 79.3C21.2 83.46 23.33 92.79 26.15 95.97C29.16 99.35 34.17 100.85 38.49 99.52C39.53 99.2 40.56 98.71 41.29 97.9C42.58 96.48 42.73 94.37 42.68 92.45C42.55 88.16 41.72 83.9 40.22 79.88C37.49 73.74 29.67 70.87 23.74 72.17C20.1 73.15 17.24 75.99 15.4 79.3H20.31Z" fill="#FE8630"/>
<path d="M31.57 99.42L32.51 96.69C32.64 96.3 33.2 96.31 33.32 96.71L34.3 99.96C33.38 99.89 32.46 99.7 31.57 99.42Z" fill="#EB561E"/>
<path d="M38.49 99.52C38.35 99.56 38.21 99.6 38.06 99.63L37.62 96.77C37.56 96.36 38.05 96.11 38.34 96.41L40.49 98.58C39.89 99 39.2 99.31 38.49 99.52Z" fill="#EB561E"/>
</g>
<defs>
<clipPath id="clip0">
<rect width="130" height="100" fill="white"/>
</clipPath>
</defs>
</svg>

<svg width="130" height="100" fill="none" xmlns="http://www.w3.org/2000/svg"><g clip-path="url(#clip0)"><path d="M107.08 79.3c4.9-3 9.38-6.68 13.23-10.96.93-1.04 1.78-2.18 2.27-3.48.06-.15.09-.3.09-.46 0-.32-.15-.62-.3-.91a103.57 103.57 0 00-9.42-15.04l.12-1.58c.53-7.25 1.21-16.57.05-23.74-1.17-7.17-3.56-14.21-7.57-20.27-.16-.24-.34-.5-.62-.6-.31-.11-.66 0-.97.12-9.19 3.53-18 10.28-23.99 18.13-.24.32-.65.46-1.03.37l-3.22-.79a.414.414 0 01-.22-.67c.34-.39.69-.78 1.03-1.17.37-.42.22-1.1-.3-1.31-2.06-.8-5.28-1.47-8.29-1.38-.54.02-.91-.56-.69-1.05.38-.83.86-1.61 1.41-2.34.31-.4-.09-.97-.58-.84-5.42 1.41-10.47 4.18-14.45 8.11-.65.64-1.43 1.12-2.3 1.35-.54.14-1.11-.05-1.45-.5-6-7.75-14.74-14.41-23.84-17.91-.31-.12-.65-.24-.97-.12-.27.1-.46.36-.62.6-4.02 6.06-6.41 13.1-7.57 20.27-1.17 7.17-.37 18.07.16 25.32-3.56 4.73-6.72 9.77-9.42 15.04-.15.29-.3.59-.3.91 0 .16.04.31.09.46.49 1.31 1.34 2.45 2.27 3.48 3.85 4.28 8.34 7.95 13.23 10.96h84.17z" fill="#FE8630"/><path d="M119.56 58.41c-2.01-3.44-4.21-6.77-6.6-9.96l.02-.33c-2.1 1.72-4.27 4.45-4.85 7.01-.25 1.11-.33 2.32.15 3.35.71 1.52 2.52 2.29 4.2 2.27 1.68-.02 3.28-.68 4.83-1.33.49-.21 1.52-.69 2.25-1.01zM108.73 67.2c-1.17.29-2.3.97-2.86 2.05-.74 1.43-.32 3.19.38 4.64l2.49 4.36c2.79-1.83 5.42-3.89 7.87-6.15a40.02 40.02 0 003.38-3.51c-2.33-.82-5.38-1.37-7.66-1.53-1.2-.09-2.43-.14-3.6.14zM20.87 60.98c1.11-.11 2.26-.43 3.02-1.25 1-1.09 1.02-2.81.43-4.16-.59-1.35-1.69-2.41-2.8-3.38-1.18-1.04-3.05-2.6-4.49-3.71a103.45 103.45 0 00-6.6 9.96c3.14 1.29 7.28 2.86 10.44 2.54zM23.87 75.05c.85-1.55 1.73-3.25 1.48-5-.09-.6-.32-1.2-.76-1.63-.82-.8-2.1-.81-3.24-.71-2.94.26-6.78 1.42-9.78 2.61.59.61 1.2 1.2 1.82 1.78 2.58 2.39 5.38 4.54 8.34 6.45.69-1.13 1.65-2.59 2.14-3.5z" fill="#EB561E"/><path d="M37.93 24.82c-2.52-3.4-5.7-5.92-9.58-7.51a.76.76 0 00-.94.33c-2.23 3.8-3.44 12.76-2.55 16.54.17.54.84.72 1.26.33.87-.81 2.31-2.12 3.98-3.5.27-.22.43-.55.43-.89l.01-2.12c0-.39.47-.59.76-.32l.68.64c.4.38 1.02.43 1.47.11 1.44-1.02 2.88-1.91 4.16-2.45.45-.19.62-.76.32-1.16zM92.34 24.82c2.52-3.4 5.7-5.92 9.58-7.51.35-.14.75 0 .94.33 2.23 3.8 3.44 12.76 2.55 16.54-.17.54-.84.72-1.26.33-.87-.81-2.31-2.12-3.98-3.5-.27-.22-.43-.55-.43-.89L99.73 28c0-.39-.47-.59-.76-.32l-.68.64c-.4.38-1.02.43-1.47.11-1.44-1.02-2.88-1.91-4.16-2.45a.766.766 0 01-.32-1.16zM79.25 67.94c-1.89 1.22-4.47 1.49-6.67 1.17-2.08-.3-4.03-1.5-5.27-3.2-.01-.02-.04-.03-.05-.05-.08-.12-.18-.23-.31-.31-.07-.04-.15-.05-.22-.08a.142.142 0 00-.06-.02c-.08-.02-.16-.02-.24-.02-.07 0-.13 0-.2.02l-.09.03c-.07.02-.13.03-.2.07-.12.07-.22.18-.31.3-.02.02-.04.03-.05.05-1.23 1.7-3.19 2.86-5.27 3.16-2.2.32-4.77.05-6.67-1.17-1.08-.7-2.09 1.03-1.01 1.73 2.35 1.51 5.5 1.8 8.21 1.37 2.17-.34 4.11-1.47 5.6-3.05 1.48 1.59 3.43 2.74 5.6 3.09 2.71.43 5.87.14 8.21-1.37 1.09-.69.09-2.42-1-1.72zM70 60.1c-1.12-.69-6-.68-7.04 0-.31.2-.68.43-.65.8.02.21.16.38.29.53.99 1.11 2.19 2.04 3.52 2.71.11.06.24.1.36.13.13-.02.25-.07.36-.13 1.33-.67 2.53-1.6 3.52-2.71.14-.15.28-.33.29-.53.03-.36-.34-.61-.65-.8z" fill="#7F3613"/><path d="M47.44 61.52c6.009 0 10.88-4.871 10.88-10.88s-4.871-10.88-10.88-10.88-10.88 4.871-10.88 10.88 4.871 10.88 10.88 10.88z" fill="#fff"/><path d="M50.82 52.39a4.087 4.087 0 01-2.93-2.79c-.39-1.32-.12-2.56.54-3.52.12-.17 0-.42-.21-.45-1.3-.18-2.69-.06-4.12.51-2.73 1.09-4.75 3.58-5.15 6.49a8.23 8.23 0 002.25 6.91c1.35.95 2.94 1.61 4.68 1.87 2.07.3 4.09-.02 5.88-.8 2.17-1.49 3.6-3.98 3.6-6.81 0-.76-.11-1.49-.3-2.19-.06-.22-.33-.27-.5-.12-.96.84-2.3 1.26-3.74.9z" fill="#1B2F45"/><path d="M47.08 60.33c-1.15 0-2.3-.26-3.33-.77a1.502 1.502 0 01-.68-2.01c.37-.74 1.27-1.05 2.01-.68 1.14.56 2.53.61 3.71.13.77-.31 1.64.05 1.96.82.31.77-.05 1.64-.82 1.96-.9.37-1.87.55-2.85.55z" fill="#3D99E0"/><path d="M86.02 61.52c6.009 0 10.88-4.871 10.88-10.88s-4.871-10.88-10.88-10.88-10.88 4.871-10.88 10.88 4.871 10.88 10.88 10.88z" fill="#fff"/><path d="M89.4 52.39a4.087 4.087 0 01-2.93-2.79c-.39-1.32-.12-2.56.53-3.51.12-.18 0-.43-.21-.46a8.036 8.036 0 00-4.12.51c-2.73 1.09-4.75 3.58-5.15 6.49a8.23 8.23 0 002.25 6.91c1.35.95 2.94 1.61 4.68 1.87 2.07.3 4.09-.02 5.88-.8 2.17-1.49 3.6-3.98 3.6-6.81 0-.76-.11-1.49-.3-2.18-.06-.22-.33-.28-.5-.13-.95.84-2.29 1.26-3.73.9z" fill="#1B2F45"/><path d="M85.67 60.33c-1.15 0-2.3-.26-3.33-.77a1.502 1.502 0 01-.68-2.01c.37-.74 1.27-1.05 2.01-.68 1.14.56 2.53.61 3.71.13.77-.31 1.64.05 1.96.82.31.77-.05 1.64-.82 1.96-.9.37-1.88.55-2.85.55z" fill="#3D99E0"/><path d="M64.6 56.58c.17-.04.34-.08.51-.11.07-.01.15-.02.22-.04.25-.04-.23.02.03 0 .32-.04.64-.06.97-.06.32 0 .65.01.97.05.07.01.28.07.03 0 .07.02.15.02.22.03.17.03.34.06.51.1.51.11 1.11-.15 1.23-.7.12-.51-.15-1.11-.7-1.23a9.86 9.86 0 00-4.52.03c-.51.12-.86.73-.7 1.23.18.53.69.83 1.23.7z" fill="#EB561E"/><path d="M72.05 71.04c-.61-.1-1.2-.27-1.78-.48l2.58 4.19c.12.19.39.21.54.04l3.03-3.73c-1.46.23-2.97.2-4.37-.02z" fill="#fff"/><path d="M112.65 79.3c-.89 4.16-3.02 13.49-5.84 16.67-3.01 3.38-8.02 4.88-12.34 3.55-1.04-.32-2.07-.81-2.8-1.62-1.29-1.42-1.44-3.53-1.39-5.45.13-4.29.96-8.55 2.46-12.57 2.73-6.14 10.55-9.01 16.48-7.71 3.64.98 6.5 3.82 8.34 7.13h-4.91z" fill="#FE8630"/><path d="M101.39 99.42l-.94-2.73c-.13-.39-.69-.38-.81.02l-.98 3.25c.92-.07 1.84-.26 2.73-.54zM94.47 99.52c.14.04.28.08.43.11l.44-2.86c.06-.41-.43-.66-.72-.36l-2.15 2.17c.6.42 1.29.73 2 .94z" fill="#EB561E"/><path d="M20.31 79.3c.89 4.16 3.02 13.49 5.84 16.67 3.01 3.38 8.02 4.88 12.34 3.55 1.04-.32 2.07-.81 2.8-1.62 1.29-1.42 1.44-3.53 1.39-5.45-.13-4.29-.96-8.55-2.46-12.57-2.73-6.14-10.55-9.01-16.48-7.71-3.64.98-6.5 3.82-8.34 7.13h4.91z" fill="#FE8630"/><path d="M31.57 99.42l.94-2.73c.13-.39.69-.38.81.02l.98 3.25c-.92-.07-1.84-.26-2.73-.54zM38.49 99.52c-.14.04-.28.08-.43.11l-.44-2.86c-.06-.41.43-.66.72-.36l2.15 2.17c-.6.42-1.29.73-2 .94z" fill="#EB561E"/></g><defs><clipPath id="clip0"><path fill="#fff" d="M0 0h130v100H0z"/></clipPath></defs></svg>
